X:8
%%newpage
T: Diable Vert, le
S: Printed MS from Debby Knight
Z: 2008 John Chambers <jc:trillian.mit.edu>
M: C|
L: 1/8
Q: 1/2=110
K: G
DC \
|: "G"B,G,B,D GDGB | ed ~d2 dBGB \
| "(C)""D" cBAG "(D7)""D"FDEF |1,3 "G"GBAG "(D7)""D"FE \
:|2,4 "G"GB"(D)""G"AF "(G)""D"G2 :|
|: GA \
| "Em"[B3E3][BE] [B2E2] ef | "Em"gfeg "(Bm)""Em"fB~B2 \
| "Em"eBBe B[eB]ef | "(Em)""Am"gB{c}BA "(D)""B"BAGA |
| "Em"BEBE B2 ef | "Em"gfeg "(Bm)""Em"fB~B2 \
| "C"efg{f}e "G"dBGB | "(D7)" "D"cBAF "G"G2 :|
%%text 2015-02-01
